;Generated with Cura_SteamEngine 15.01
; Default start code
G28 ; Home extruder
G1 Z15 F100
M107 ; Turn off fan
G90 ; Absolute positioning
M82 ; Extruder in absolute mode
M190 S50
; Activate all used extruder
M104 T0 S210
G92 E0 ; Reset extruder position
; Wait for all used extruders to reach temperature
M109 T0 S210
;Layer count: 97
;LAYER:0
M107
G0 F9000 X65.606 Y59.580 Z0.300
;TYPE:SKIRT
G1 F1800 X70.206 Y59.580 E0.22949
G1 X70.206 Y57.780 E0.31930
G1 X79.906 Y57.780 E0.80323
G1 X79.906 Y67.065 E1.26646
G1 X80.106 Y67.265 E1.28057
G1 X80.106 Y71.895 E1.51157
G1 X79.906 Y72.095 E1.52568
G1 X79.906 Y84.180 E2.12860
G1 X70.206 Y84.180 E2.61253
G1 X70.206 Y81.580 E2.74225
G1 X65.606 Y81.580 E2.97174
G1 X65.606 Y59.580 E4.06933
G0 F9000 X60.106 Y59.580
G1 F1800 X60.106 Y81.580 E5.16691
G1 X55.506 Y81.580 E5.39641
G1 X55.506 Y84.180 E5.52612
G1 X45.806 Y84.180 E6.01006
G1 X45.806 Y57.780 E7.32716
G1 X55.506 Y57.780 E7.81109
G1 X55.506 Y59.580 E7.90090
G1 X60.106 Y59.580 E8.13039
G0 F9000 X87.738 Y65.665
G1 F1800 X89.041 Y58.661 E8.48582
G1 X89.573 Y55.824 E8.62982
G1 X98.112 Y55.824 E9.05584
G1 X97.050 Y61.542 E9.34599
G1 X96.244 Y65.870 E9.56562
G1 X96.940 Y70.983 E9.82306
G1 X99.202 Y75.619 E10.08042
G1 X103.016 Y79.528 E10.35289
G1 X105.073 Y81.627 E10.49951
G1 X102.277 Y85.396 E10.73364
G1 X99.994 Y88.459 E10.92423
G1 X92.772 Y81.057 E11.44017
G1 X92.248 Y80.523 E11.47750
G1 X88.797 Y73.453 E11.87000
G1 X87.839 Y66.399 E12.22515
G1 X87.738 Y65.665 E12.26212
G0 F9000 X112.780 Y81.636
G1 F1800 X118.652 Y75.620 E12.68153
G1 X120.915 Y70.983 E12.93895
G1 X121.610 Y65.869 E13.19643
G1 X120.458 Y59.676 E13.51070
G1 X119.710 Y55.824 E13.70647
G1 X128.285 Y55.824 E14.13428
G1 X129.978 Y64.928 E14.59627
G1 X130.115 Y65.660 E14.63342
G1 X129.157 Y72.719 E14.98882
G1 X129.056 Y73.455 E15.02589
G1 X125.608 Y80.518 E15.41801
G1 X120.633 Y85.617 E15.77342
G1 X117.847 Y88.456 E15.97187
G1 X114.455 Y83.882 E16.25597
G1 X114.454 Y83.883 E16.25604
G1 X112.780 Y81.636 E16.39583
G0 F9000 X136.973 Y101.519
G1 F1800 X137.612 Y100.766 E16.44510
G1 X138.421 Y100.193 E16.49456
G1 X139.354 Y99.830 E16.54451
G1 X140.338 Y99.717 E16.59392
G1 X140.342 Y99.717 E16.59412
G1 X140.820 Y99.580 E16.61893
G1 X142.003 Y99.559 E16.67796
G1 X145.479 Y100.438 E16.85684
G1 X145.005 Y104.272 E17.04957
G1 X145.164 Y104.528 E17.06461
G1 X145.256 Y104.718 E17.07514
G1 X145.386 Y104.857 E17.08463
G1 X145.902 Y105.668 E17.13259
G1 X146.264 Y106.556 E17.18043
G1 X146.460 Y107.510 E17.22902
G1 X146.475 Y108.479 E17.27737
G1 X146.353 Y109.212 E17.31444
G1 X146.391 Y109.964 E17.35201
G1 X146.348 Y110.804 E17.39397
G1 X146.283 Y111.210 E17.41448
G1 X146.581 Y111.570 E17.43780
G1 X146.988 Y112.233 E17.47661
G1 X147.139 Y112.478 E17.49097
G1 X147.438 Y113.166 E17.52840
G1 X147.563 Y113.444 E17.54360
G1 X147.759 Y114.162 E17.58074
G1 X147.847 Y114.464 E17.59643
G1 X147.947 Y115.247 E17.63581
G1 X147.986 Y115.538 E17.65046
G1 X147.976 Y116.331 E17.69002
G1 X147.971 Y116.622 E17.70454
G1 X147.819 Y117.588 E17.75333
G1 X147.531 Y118.588 E17.80525
G1 X147.091 Y119.568 E17.85884
G1 X146.517 Y120.469 E17.91214
G1 X145.831 Y121.276 E17.96498
G1 X145.033 Y121.985 E18.01824
G1 X144.142 Y122.573 E18.07150
G1 X143.358 Y122.945 E18.11479
G1 X143.075 Y123.074 E18.13031
G1 X142.326 Y123.295 E18.16927
G1 X142.051 Y123.375 E18.18356
G1 X141.682 Y123.429 E18.20216
G1 X142.216 Y123.680 E18.23160
G1 X142.548 Y123.589 E18.24878
G1 X143.630 Y123.412 E18.30347
G1 X144.559 Y123.372 E18.34987
G1 X144.833 Y123.360 E18.36355
G1 X145.718 Y123.434 E18.40786
G1 X145.979 Y123.459 E18.42094
G1 X146.962 Y123.660 E18.47099
G1 X148.007 Y123.993 E18.52571
G1 X149.020 Y124.452 E18.58120
G1 X149.975 Y125.027 E18.63681
G1 X150.853 Y125.709 E18.69228
G1 X151.522 Y126.365 E18.73902
G1 X151.721 Y126.565 E18.75310
G1 X152.358 Y127.378 E18.80463
G1 X152.936 Y128.307 E18.85921
G1 X153.411 Y129.314 E18.91476
G1 X153.763 Y130.367 E18.97015
G1 X153.993 Y131.457 E19.02573
G1 X154.075 Y132.390 E19.07246
G1 X154.112 Y132.835 E19.09473
G1 X153.924 Y134.131 E19.16007
G1 X153.672 Y135.123 E19.21113
G1 X153.303 Y136.154 E19.26576
G1 X152.822 Y137.157 E19.32126
G1 X152.242 Y138.100 E19.37649
G1 X151.614 Y138.921 E19.42806
G1 X149.360 Y141.543 E19.60057
G1 X150.178 Y142.067 E19.64903
G1 X150.935 Y142.772 E19.70064
G1 X151.547 Y143.610 E19.75241
G1 X151.996 Y144.541 E19.80398
G1 X152.267 Y145.552 E19.85620
G1 X152.329 Y146.410 E19.89911
G1 X152.655 Y146.619 E19.91843
G1 X153.458 Y147.283 E19.97042
G1 X153.758 Y147.603 E19.99230
G1 X153.946 Y147.621 E20.00172
G1 X156.033 Y147.823 E20.10633
G1 X157.043 Y150.291 E20.23937
G1 X157.195 Y151.437 E20.29705
G1 X157.043 Y152.590 E20.35507
G1 X156.668 Y153.501 E20.40422
G1 X156.608 Y153.771 E20.41802
G1 X156.171 Y154.645 E20.46677
G1 X155.558 Y155.365 E20.51394
G1 X154.789 Y155.937 E20.56176
G1 X153.891 Y156.306 E20.61020
G1 X152.951 Y156.455 E20.65768
G1 X151.300 Y156.319 E20.74033
G1 X150.396 Y155.507 E20.80095
G1 X150.103 Y155.511 E20.81557
G1 X149.869 Y155.514 E20.82724
G1 X149.032 Y155.444 E20.86915
G1 X148.302 Y155.399 E20.90564
G1 X147.314 Y155.143 E20.95656
G1 X146.376 Y154.693 E21.00846
G1 X145.549 Y154.062 E21.06036
G1 X145.394 Y153.888 E21.07198
G1 X145.093 Y153.783 E21.08789
G1 X144.175 Y153.251 E21.14082
G1 X144.046 Y153.137 E21.14941
G1 X143.044 Y153.219 E21.19957
G1 X142.274 Y153.178 E21.23804
G1 X142.006 Y153.160 E21.25144
G1 X141.295 Y153.027 E21.28753
G1 X141.033 Y152.976 E21.30084
G1 X140.152 Y152.689 E21.34707
G1 X139.248 Y152.265 E21.39688
G1 X138.395 Y151.715 E21.44752
G1 X137.765 Y151.178 E21.48882
G1 X137.548 Y150.985 E21.50331
G1 X137.058 Y150.425 E21.54043
G1 X136.881 Y150.220 E21.55394
G1 X136.370 Y149.450 E21.60005
G1 X135.925 Y148.564 E21.64951
G1 X135.594 Y147.605 E21.70013
G1 X135.434 Y146.808 E21.74068
G1 X135.379 Y146.521 E21.75526
G1 X135.340 Y145.769 E21.79283
G1 X135.326 Y145.500 E21.80627
G1 X135.387 Y144.754 E21.84361
G1 X135.416 Y144.422 E21.86024
G1 X135.767 Y143.067 E21.93007
G1 X135.919 Y142.631 E21.95311
G1 X135.791 Y142.741 E21.96153
G1 X134.934 Y143.318 E22.01307
G1 X134.538 Y143.531 E22.03550
G1 X134.196 Y144.400 E22.08209
G1 X133.857 Y145.048 E22.11858
G1 X133.858 Y145.048 E22.11863
G1 X133.762 Y145.231 E22.12894
G1 X133.295 Y145.964 E22.17230
G1 X133.037 Y146.295 E22.19324
G1 X132.374 Y147.011 E22.24192
G1 X131.605 Y147.670 E22.29245
G1 X130.857 Y148.184 E22.33773
G1 X130.626 Y148.340 E22.35163
G1 X129.868 Y148.727 E22.39409
G1 X129.641 Y148.844 E22.40684
G1 X128.842 Y149.139 E22.44933
G1 X128.603 Y149.228 E22.46205
G1 X127.784 Y149.425 E22.50408
G1 X127.527 Y149.487 E22.51727
G1 X126.516 Y149.607 E22.56806
G1 X125.602 Y149.618 E22.61366
G1 X125.322 Y149.618 E22.62763
G1 X124.314 Y149.499 E22.67827
G1 X123.412 Y149.292 E22.72444
G1 X123.143 Y149.226 E22.73826
G1 X122.201 Y148.878 E22.78836
G1 X121.374 Y148.469 E22.83439
G1 X121.126 Y148.341 E22.84831
G1 X120.421 Y147.871 E22.89059
G1 X120.203 Y147.723 E22.90373
G1 X119.438 Y147.067 E22.95401
G1 X118.814 Y146.404 E22.99943
G1 X118.478 Y146.041 E23.02411
G1 X117.773 Y144.727 E23.09850
G1 X117.672 Y144.538 E23.10920
G1 X117.139 Y143.381 E23.17275
G1 X116.665 Y142.177 E23.23730
G1 X116.582 Y141.965 E23.24866
G1 X116.196 Y140.747 E23.31241
G1 X115.850 Y139.401 E23.38174
G1 X115.767 Y138.965 E23.40389
G1 X115.612 Y139.054 E23.41280
G1 X114.590 Y139.394 E23.46654
G1 X113.544 Y139.525 E23.51913
G1 X112.484 Y139.457 E23.57212
G1 X111.451 Y139.176 E23.62553
G1 X110.498 Y138.705 E23.67857
G1 X110.195 Y138.472 E23.69764
G1 X109.328 Y138.755 E23.74314
G1 X108.494 Y138.932 E23.78567
G1 X108.265 Y138.981 E23.79736
G1 X107.954 Y139.312 E23.82002
G1 X106.772 Y140.555 E23.90559
G1 X104.645 Y140.341 E24.01224
G1 X103.753 Y140.046 E24.05912
G1 X102.937 Y139.546 E24.10686
G1 X102.251 Y138.869 E24.15495
G1 X101.974 Y138.426 E24.18101
G1 X101.448 Y137.749 E24.22378
G1 X101.029 Y136.836 E24.27390
G1 X100.826 Y135.867 E24.32329
G1 X100.863 Y133.327 E24.45003
G1 X103.796 Y131.808 E24.61482
G1 X104.005 Y131.666 E24.62742
G1 X104.097 Y131.571 E24.63402
G1 X104.430 Y131.198 E24.65897
G1 X104.572 Y131.022 E24.67025
G1 X104.849 Y130.556 E24.69729
G1 X105.514 Y129.779 E24.74832
G1 X106.345 Y129.122 E24.80117
G1 X107.285 Y128.638 E24.85392
G1 X108.220 Y128.365 E24.90251
G1 X109.082 Y127.970 E24.94982
G1 X109.718 Y127.799 E24.98268
G1 X110.065 Y127.195 E25.01743
G1 X110.216 Y126.943 E25.03208
G1 X110.670 Y126.367 E25.06867
G1 X110.831 Y126.162 E25.08168
G1 X111.500 Y125.508 E25.12835
G1 X112.286 Y124.906 E25.17775
G1 X113.161 Y124.401 E25.22815
G1 X114.172 Y123.984 E25.28271
G1 X115.089 Y123.755 E25.32987
G1 X115.869 Y123.651 E25.36912
G1 X116.550 Y123.568 E25.40335
G1 X117.944 Y123.931 E25.47522
G1 X118.665 Y124.206 E25.51372
G1 X118.892 Y124.293 E25.52584
G1 X119.579 Y124.646 E25.56438
G1 X119.791 Y124.756 E25.57629
G1 X120.082 Y124.948 E25.59369
G1 X119.854 Y124.467 E25.62024
G1 X119.736 Y124.224 E25.63372
G1 X119.410 Y123.261 E25.68444
G1 X119.175 Y122.208 E25.73827
G1 X119.084 Y121.304 E25.78360
G1 X119.056 Y121.027 E25.79749
G1 X119.082 Y120.152 E25.84116
G1 X119.093 Y119.898 E25.85385
G1 X119.235 Y118.921 E25.90310
G1 X119.511 Y117.872 E25.95722
G1 X119.853 Y117.000 E26.00395
G1 X119.961 Y116.740 E26.01799
G1 X120.444 Y115.870 E26.06764
G1 X120.962 Y115.129 E26.11275
G1 X121.126 Y114.902 E26.12672
G1 X121.805 Y114.160 E26.17690
G1 X122.615 Y113.446 E26.23077
G1 X123.363 Y112.932 E26.27604
G1 X123.593 Y112.773 E26.28999
G1 X124.512 Y112.305 E26.34145
G1 X125.519 Y111.921 E26.39521
G1 X126.398 Y111.701 E26.44042
G1 X126.667 Y111.634 E26.45425
G1 X127.477 Y111.539 E26.49494
G1 X127.753 Y111.504 E26.50882
G1 X128.627 Y111.505 E26.55242
G1 X128.892 Y111.509 E26.56565
G1 X129.872 Y111.630 E26.61491
G1 X130.690 Y111.820 E26.65681
G1 X133.860 Y112.488 E26.81843
G1 X133.813 Y112.097 E26.83808
G1 X133.890 Y111.024 E26.89175
G1 X134.179 Y109.980 E26.94579
G1 X134.663 Y109.015 E26.99965
G1 X135.320 Y108.173 E27.05294
G1 X136.130 Y107.463 E27.10667
G1 X136.337 Y107.345 E27.11856
G1 X136.399 Y106.749 E27.14846
G1 X136.588 Y105.815 E27.19600
G1 X136.783 Y105.188 E27.22876
G1 X136.129 Y103.227 E27.33189
G1 X136.973 Y101.519 E27.42694
G0 F9000 X91.120 Y108.286
G1 F1800 X83.513 Y112.087 E27.85119
G1 X83.311 Y112.288 E27.86541
G1 X77.102 Y115.389 E28.21166
G1 X76.629 Y113.992 E28.28525
G1 X72.251 Y114.695 E28.50646
G1 X71.643 Y114.797 E28.53722
G1 X66.638 Y113.993 E28.79012
G1 X66.202 Y115.285 E28.85815
G1 X59.401 Y111.888 E29.23743
G1 X59.199 Y111.687 E29.25164
G1 X52.256 Y108.218 E29.63886
G1 X55.406 Y105.064 E29.86125
G1 X55.406 Y104.869 E29.87098
G1 X59.365 Y100.901 E30.15063
G1 X69.370 Y105.900 E30.70862
G1 X69.363 Y105.921 E30.70972
G1 X71.633 Y106.287 E30.82443
G1 X74.196 Y105.874 E30.95395
G1 X87.506 Y99.219 E31.69637
G1 X87.506 Y104.667 E31.96817
G1 X91.120 Y108.286 E32.22333
G1 F2400 E28.22333
G0 F9000 X55.856 Y72.203
;TYPE:WALL-INNER
G1 F2400 E32.22333
G1 F1800 X52.926 Y72.204 E32.36951
G1 X52.806 Y72.204 E32.37550
G1 X52.806 Y68.768 E32.54692
G1 X55.856 Y68.767 E32.69909
G1 X55.856 Y72.203 E32.87051
G0 F9000 X56.256 Y72.603
;TYPE:WALL-OUTER
G1 F1800 X52.406 Y72.603 E33.06259
G1 X52.406 Y68.368 E33.27387
G1 X56.256 Y68.367 E33.46595
G1 X56.256 Y72.603 E33.67729
G0 F9000 X55.715 Y71.837
;TYPE:SKIN
G1 F1800 X52.946 Y69.068 E33.87265
G0 F9000 X53.350 Y68.906
G1 F1800 X55.715 Y71.272 E34.03955
G0 F9000 X55.715 Y70.706
G1 F1800 X53.916 Y68.906 E34.16652
G0 F9000 X54.481 Y68.906
G1 F1800 X55.715 Y70.140 E34.25358
G0 F9000 X55.715 Y69.575
G1 F1800 X55.047 Y68.906 E34.30075
G0 F9000 X55.613 Y68.906
G1 F1800 X55.715 Y69.009 E34.30798
G0 F9000 X52.946 Y69.633
G1 F1800 X55.374 Y72.062 E34.47932
G0 F9000 X54.809 Y72.062
G1 F1800 X52.946 Y70.199 E34.61077
G0 F9000 X52.946 Y70.765
G1 F1800 X54.243 Y72.062 E34.70228
G0 F9000 X53.677 Y72.062
G1 F1800 X52.946 Y71.330 E34.75389
G0 F9000 X52.946 Y71.896
G1 F1800 X53.112 Y72.062 E34.76560
G1 F2400 E30.76560
G0 F9000 X70.226 Y72.204
;TYPE:WALL-INNER
G1 F2400 E34.76560
G1 F1800 X70.106 Y72.204 E34.77159
G1 X70.106 Y68.768 E34.94301
G1 X73.156 Y68.768 E35.09518
G1 X73.156 Y72.203 E35.26655
G1 X70.226 Y72.204 E35.41273
G0 F9000 X69.706 Y72.603
;TYPE:WALL-OUTER
G1 F1800 X69.706 Y68.368 E35.62401
G1 X73.556 Y68.368 E35.81609
G1 X73.556 Y72.603 E36.02738
G1 X69.706 Y72.603 E36.21945
G0 F9000 X70.649 Y72.063
;TYPE:SKIN
G1 F1800 X70.245 Y71.659 E36.24796
G0 F9000 X70.245 Y71.093
G1 F1800 X71.214 Y72.063 E36.31636
G0 F9000 X71.780 Y72.063
G1 F1800 X70.245 Y70.528 E36.42466
G0 F9000 X70.245 Y69.962
G1 F1800 X72.346 Y72.063 E36.57290
G0 F9000 X72.911 Y72.063
G1 F1800 X70.245 Y69.396 E36.76104
G0 F9000 X70.322 Y68.908
G1 F1800 X73.015 Y71.600 E36.95101
G0 F9000 X73.015 Y71.035
G1 F1800 X70.888 Y68.908 E37.10108
G0 F9000 X71.453 Y68.908
G1 F1800 X73.015 Y70.469 E37.21125
G0 F9000 X73.015 Y69.903
G1 F1800 X72.019 Y68.908 E37.28149
G0 F9000 X72.585 Y68.908
G1 F1800 X73.015 Y69.338 E37.31183
G1 F2400 E33.31183
G0 F9000 X91.587 Y65.756
;TYPE:WALL-INNER
G1 F2400 E37.31183
G1 F1800 X92.728 Y59.624 E37.62300
G1 X93.541 Y59.624 E37.66357
G1 X92.444 Y65.521 E37.96281
G1 X92.396 Y65.775 E37.97571
G1 X93.256 Y72.100 E38.29417
G1 X96.055 Y77.836 E38.61259
G1 X100.089 Y81.968 E38.90069
G1 X99.606 Y82.619 E38.94113
G1 X95.485 Y78.395 E39.23555
G1 X95.392 Y78.301 E39.24215
G1 X92.481 Y72.338 E39.57320
G1 X91.587 Y65.756 E39.90459
G0 F9000 X92.801 Y65.786
;TYPE:WALL-OUTER
G1 F1800 X93.644 Y71.983 E40.21661
G1 X96.386 Y77.603 E40.52858
G1 X100.613 Y81.933 E40.83048
G1 X99.647 Y83.234 E40.91132
G1 X95.062 Y78.536 E41.23883
G1 X92.092 Y72.452 E41.57659
G1 X91.182 Y65.749 E41.91408
G1 X92.396 Y59.224 E42.24520
G1 X94.022 Y59.224 E42.32632
G1 X92.801 Y65.786 E42.65932
G0 F9000 X92.280 Y65.976
;TYPE:SKIN
G1 F1800 X91.824 Y65.237 E42.69452
G1 X92.358 Y65.205 E42.72594
G1 X92.001 Y64.283 E42.75739
G1 X92.535 Y64.251 E42.78881
G1 X92.179 Y63.329 E42.82012
G1 X92.713 Y63.297 E42.85155
G1 X92.356 Y62.375 E42.88300
G1 X92.890 Y62.343 E42.91442
G1 X92.534 Y61.421 E42.94573
G1 X93.068 Y61.390 E42.97716
G1 X92.711 Y60.467 E43.00851
G1 X93.246 Y60.436 E43.03999
G1 X92.856 Y59.763 E43.07880
G0 F9000 X91.763 Y66.024
G1 F1800 X92.370 Y66.631 E43.12162
G0 F9000 X91.852 Y66.679
G1 F1800 X92.459 Y67.286 E43.16445
G0 F9000 X91.941 Y67.334
G1 F1800 X92.548 Y67.940 E43.20724
G0 F9000 X92.029 Y67.988
G1 F1800 X92.637 Y68.595 E43.25011
G0 F9000 X92.119 Y68.643
G1 F1800 X92.726 Y69.250 E43.29293
G0 F9000 X92.208 Y69.297
G1 F1800 X92.815 Y69.905 E43.33580
G0 F9000 X92.296 Y69.951
G1 F1800 X92.904 Y70.560 E43.37873
G0 F9000 X92.385 Y70.606
G1 F1800 X92.993 Y71.214 E43.42163
G0 F9000 X92.474 Y71.261
G1 F1800 X93.082 Y71.869 E43.46452
G0 F9000 X92.563 Y71.916
G1 F1800 X93.436 Y72.788 E43.52608
G0 F9000 X92.841 Y72.759
G1 F1800 X93.975 Y73.893 E43.60609
G0 F9000 X93.381 Y73.865
G1 F1800 X94.513 Y74.997 E43.68596
G0 F9000 X93.921 Y74.970
G1 F1800 X95.052 Y76.101 E43.76576
G0 F9000 X94.460 Y76.076
G1 F1800 X95.590 Y77.205 E43.84545
G0 F9000 X95.001 Y77.182
G1 F1800 X99.860 Y82.041 E44.18828
G0 F9000 X99.619 Y82.365
G1 F1800 X96.924 Y79.671 E44.37839
G1 F2400 E40.37839
G0 F9000 X117.765 Y81.968
;TYPE:WALL-INNER
G1 F2400 E44.37839
G1 F1800 X121.586 Y78.054 E44.65129
G1 X121.799 Y77.836 E44.66649
G1 X124.599 Y72.100 E44.98494
G1 X125.458 Y65.776 E45.30334
G1 X124.313 Y59.624 E45.61553
G1 X125.126 Y59.624 E45.65610
G1 X126.267 Y65.756 E45.96727
G1 X125.373 Y72.338 E46.29867
G1 X122.461 Y78.302 E46.62978
G1 X118.249 Y82.620 E46.93073
G1 X117.765 Y81.968 E46.97124
G0 F9000 X117.241 Y81.933
;TYPE:WALL-OUTER
